X:1
T: Mrs. Joseph Lowe's Strathspey
C:
R:Strathspey
Q: 128
K:F
M:4/4
L:1/16
|:B2|AF3 A3c f3c A3c|B3G BAGF EG3 G3B|AF3 A3c f3c A3c|((3d2e2f2) ((3e2f2g2) af3 f2B2|
AF3 A3c f3c A3c|B3G BAGF EG3 G3B|AF3 A3c f3c A3c|((3d2e2f2) ((3e2f2g2) af3 f2c2|
a3f c3f c3f a3f|b3g bagf eg3 g3b|a3f c3f c3f a3f|bagf e3g fff2 f3c|
a3f c3f c3f a3f|b3g bagf eg3 g2fe|d3B f3d c3A f3c|dcBA G3c AF3 F2:|
